svgs/sharp-solid/signal-bars-good.svg

<svg xmlns="http://www.w3.org/2000/svg" viewBox="0 0 640 512"><!--! Font Awesome Pro 6.6.0 by @fontawesome - https://fontawesome.com License - https://fontawesome.com/license (Commercial License) Copyright 2024 Fonticons, Inc. --><path d="M448 128l-96 0 0 384 96 0 0-384zM192 256l0 256 96 0 0-256-96 0zM32 384l0 128 96 0 0-128-96 0z"/></svg>

<svg xmlns="http://www.w3.org/2000/svg" viewBox="0 0 640 512"><!--! Font Awesome Pro 6.4.2 by @fontawesome - https://fontawesome.com License - https://fontawesome.com/license (Commercial License) Copyright 2023 Fonticons, Inc. --><path d="M448 128H352V512h96V128zM192 256V512h96V256H192zM32 384V512h96V384H32z"/></svg>
